packages/core/src/svgs/plex.svg

<svg width="24" height="24" viewBox="0 0 24 24" fill="none" xmlns="http://www.w3.org/2000/svg">
<g clip-path="url(#clip0_31_16088)">
<path d="M0 0H24V24H0V0Z" fill="#F0F3FA"/>
<path d="M18.8528 10.8859C18.8528 10.8302 19.2385 5.14307 13.7228 5.14307C11.9957 5.14307 5.14282 5.65307 5.14282 10.6631V13.1188C5.14282 18.1074 8.63568 18.8574 10.2728 18.8574C15.99 18.8574 18.8528 16.2559 18.8528 13.3374V10.8816V10.8859Z" fill="#F08296"/>
<path d="M12.8485 8.14307C14.1128 8.14307 14.9999 9.17164 14.9999 10.8431C14.9999 12.5188 13.8213 13.7145 12.4285 13.7145C11.8799 13.7145 11.5456 13.5002 11.1428 13.3545V15.8574H9.42847V9.17164C10.187 8.87164 11.9313 8.14307 12.8485 8.14307ZM11.1428 9.42878V12.4288H11.9999C12.7585 12.4288 13.2856 11.8545 13.2856 10.9288C13.2856 9.77164 12.887 9.42878 11.9999 9.42878H11.1428Z" fill="#002048"/>
</g>
<defs>
<clipPath id="clip0_31_16088">
<rect width="24" height="24" fill="white"/>
</clipPath>
</defs>
</svg>

<svg xmlns="http://www.w3.org/2000/svg" width="24" height="24" fill="none" viewBox="0 0 24 24"><g clip-path="url(#a)"><path fill="#F0F3FA" d="M0 0h24v24H0z"/><path fill="#F08296" d="M18.853 10.886c0-.056.385-5.743-5.13-5.743-1.727 0-8.58.51-8.58 5.52v2.456c0 4.988 3.493 5.738 5.13 5.738 5.717 0 8.58-2.601 8.58-5.52v-2.455z"/><path fill="#002048" d="M12.849 8.143c1.264 0 2.15 1.029 2.15 2.7 0 1.676-1.178 2.871-2.57 2.871-.55 0-.883-.214-1.286-.36v2.503H9.428V9.172c.759-.3 2.503-1.029 3.42-1.029M11.143 9.43v3H12c.758 0 1.286-.575 1.286-1.5 0-1.157-.399-1.5-1.286-1.5z"/></g><defs><clipPath id="a"><path fill="#fff" d="M0 0h24v24H0z"/></clipPath></defs></svg>
